X:1
T:Standin In The Need of Prayer
T:Way over Jordan
T:Copyright 1881 by The Riverside Press
T:Rodeheaver's Plantation Melodies
T:Rodeheaver's Plantation Melodies
Z:Rodeheaver's Plantation Melodies
%%score [ 1 2 3 4 ]
L:1/8
Q:1/4=70
M:4/4
K:C
V:1 treble nm="Soprano" snm="S."
V:2 treble nm="Alto" snm="A."
V:3 bass nm="Tenor" snm="T."
V:4 bass nm="Bass" snm="B."
V:1
 c | c c2 A G2 E2 | F>E D2 E>D C2 | c c2 A G2 Ec | c>c dB c3!fine! :| C | C/C/E/E/ GG AA G2 | %7
w: |||||I|want to go to heav- ven when I die.|
 F>E D2 E>D CC | CEGG AAGc | c>c dB c3 |] %10
w: * * * * * * To|shout sal- va- tion as I fly. *||
V:2
 E | E E2 F E2 C2 | D>C B,2 C>B, C2 | E E2 F E2 CE | E>E FD E3 :| C | C/C/E/E/ GG AA G2 | %7
w: Oh,|way o- ver Jor- dan.|View the land, view the land.|Way o- ver Jor- dan. Oh,|view the heav'n- ly land.|||
 D>C B,2 C>B, CC | CEGG AAGE | E>E FD E3 |] %10
w: View the land, view the land. *|* * * * * * * Oh|view the heav'n- ly land.|
V:3
 C | C C2 C C2 G,2 | G,>G, G,2 G,>F, E,2 | C C2 C C2 CC | C>C B,D C3 :| z | z8 | %7
 G,>G, G,2 G,>G, G, z | z4 z2 z C | C>C B,D C3 |] %10
V:4
 C, | C, C,2 C, C,2 C,2 | G,,>G,, G,,2 C,>C, C,2 | C, C,2 C, C,2 C,C, | C,>C, G,,G,, C,3 :| z | %6
 z8 | G,,>G,, G,,2 C,>C, C, z | %8
"_2. Old Satan0s mad, and I am glad. View the land, view the land.\n    He miss'd that soul he thiught he had. O view the heav'ly land.\n\n3. You say you're aiming for the skies. View the land, view the land.\n    Why don't you stop your telling lies? O view the heav'ly land.\n\n4. You say your Lord has set you free. View the land, view the land.\n    Why don't you let your neighbourd be. O view the heav'ly land." z4 z2 z C, | %9
 C,>C, G,,G,, C,3 |] %10

